src/assets/customers/fchh.svg

<svg width="136" height="178" viewBox="0 0 136 178" fill="none" xmlns="http://www.w3.org/2000/svg">
<path d="M101.457 58.1756V20.4904C101.457 20.1055 101.355 19.7274 101.163 19.3941C100.97 19.0608 100.693 18.784 100.36 18.5916L68.6894 0.294108C68.3557 0.101434 67.9771 0 67.5918 0C67.2064 0 66.8279 0.101434 66.4941 0.294108L34.8203 18.5879C34.4869 18.7804 34.21 19.0571 34.0173 19.3904C33.8247 19.7237 33.7231 20.1018 33.7227 20.4868V58.1756L66.4941 39.2379C66.8279 39.0452 67.2064 38.9438 67.5918 38.9438C67.9771 38.9438 68.3557 39.0452 68.6894 39.2379L101.457 58.1756Z" fill="var(--svg-hover-color,#35A58E)"/>
<path d="M67.5918 116.77L100.221 135.609C100.554 135.802 100.933 135.903 101.318 135.903C101.704 135.903 102.082 135.802 102.416 135.609L134.09 117.315C134.423 117.123 134.7 116.846 134.893 116.513C135.085 116.179 135.187 115.801 135.187 115.416V78.8288C135.187 78.4438 135.085 78.0658 134.893 77.7325C134.7 77.3992 134.423 77.1224 134.09 76.9299L101.465 58.1349V95.9298C101.464 96.3148 101.363 96.6929 101.17 97.0262C100.977 97.3595 100.7 97.6363 100.367 97.8287L67.5918 116.77Z" fill="var(--svg-hover-color,#3A70CA)"/>
<path d="M67.5919 116.77L34.9631 135.609C34.6294 135.802 34.2508 135.903 33.8655 135.903C33.4801 135.903 33.1015 135.802 32.7678 135.609L1.09763 117.315C0.764237 117.123 0.487325 116.846 0.294671 116.513C0.102017 116.179 0.000394862 115.801 0 115.416L0 78.8288C0.000394862 78.4438 0.102017 78.0658 0.294671 77.7325C0.487325 77.3992 0.764237 77.1224 1.09763 76.9299L33.7228 58.1349V95.9298C33.7232 96.3148 33.8248 96.6929 34.0174 97.0262C34.2101 97.3595 34.487 97.6363 34.8204 97.8287L67.5919 116.77Z" fill="var(--svg-hover-color,#EB4544)"/>
<path d="M59.74 67.8247H54.1494V65.3917H60.7132V61.9817H50.3809V77.2716H54.1494V71.2383H59.74V67.8247Z" fill="var(--svg-hover-color,#0B1324)"/>
<path d="M65.5615 61.9817L60.5234 77.2716H64.3725L65.4262 73.7702H69.9228L70.9765 77.2716H74.9097L69.9374 61.9817H65.5615ZM68.9752 70.481H66.3518L67.6544 65.999L68.9752 70.481Z" fill="var(--svg-hover-color,#0B1324)"/>
<path d="M88.0993 71.0586C87.8864 70.6177 87.5864 70.2244 87.2175 69.9025C86.8798 69.6119 86.4882 69.3906 86.065 69.2512C86.4161 69.117 86.7334 68.9071 86.9943 68.6365C87.284 68.3301 87.5059 67.9661 87.6456 67.5682C87.8137 67.075 87.8942 66.5561 87.8834 66.0352C87.9049 65.4987 87.8189 64.9634 87.6304 64.4607C87.4419 63.958 87.1547 63.4982 86.7858 63.1081C86.3756 62.7295 85.8934 62.4372 85.3679 62.2486C84.8425 62.06 84.2845 61.9791 83.7271 62.0105H76.2852V77.3005H84.3747C84.9413 77.3009 85.5011 77.1759 86.0138 76.9346C86.5064 76.7035 86.947 76.3749 87.309 75.9687C87.6779 75.549 87.9646 75.0637 88.1542 74.5381C88.3588 73.983 88.4617 73.3955 88.4578 72.8039C88.4726 72.2024 88.35 71.6055 88.0993 71.0586ZM80.05 71.194H83.46C83.7546 71.1745 84.0451 71.2717 84.2686 71.4647C84.3679 71.5666 84.4444 71.6885 84.4929 71.8222C84.5415 71.956 84.5611 72.0985 84.5503 72.2404V72.9722C84.5611 73.114 84.5415 73.2566 84.4929 73.3903C84.4444 73.5241 84.3679 73.6459 84.2686 73.7478C84.0451 73.9408 83.7546 74.0381 83.46 74.0186H80.05V71.194ZM84.0234 66.9572C84.0533 67.2094 83.9819 67.4632 83.8248 67.6629C83.6677 67.8625 83.4378 67.9916 83.1856 68.0219C83.1101 68.0292 83.0342 68.0292 82.9587 68.0219H80.0573V65.2522H82.9587C83.211 65.2223 83.4648 65.2937 83.6645 65.4508C83.8641 65.6079 83.9932 65.8378 84.0234 66.09C84.0344 66.1665 84.0344 66.2441 84.0234 66.3205V66.9572Z" fill="var(--svg-hover-color,#0B1324)"/>
<path d="M53.5203 94.4569C51.7495 94.4569 50.3592 93.8581 49.3494 92.6605C48.3395 91.4629 47.8346 89.7249 47.8346 87.4468C47.8167 86.4307 47.9474 85.4175 48.2225 84.4393C48.4457 83.6388 48.8291 82.892 49.3494 82.244C49.8311 81.6563 50.4473 81.1933 51.1458 80.8939C51.8989 80.5803 52.7083 80.4247 53.524 80.4366C54.5642 80.4005 55.5926 80.6674 56.4839 81.2049C57.3184 81.7646 57.9699 82.5572 58.3572 83.4843L56.5278 84.4941C56.3232 83.8878 55.9501 83.3522 55.4522 82.9502C54.8993 82.5475 54.2254 82.3461 53.5423 82.3794C53.0766 82.3576 52.6122 82.4429 52.1847 82.6287C51.7572 82.8146 51.378 83.096 51.0763 83.4514C50.4811 84.1636 50.1835 85.1503 50.1835 86.4113V88.4749C50.1835 89.7335 50.4811 90.7201 51.0763 91.4348C51.6389 92.0314 52.3979 92.405 53.2138 92.487C54.0298 92.569 54.8479 92.3539 55.518 91.8812C56.0355 91.4533 56.4275 90.8932 56.6522 90.2603L58.4194 91.3287C58.0105 92.2562 57.3518 93.0517 56.5169 93.6264C55.6246 94.199 54.5801 94.4886 53.5203 94.4569Z" fill="var(--svg-hover-color,#0B1324)"/>
<path d="M59.6787 94.2222V92.4367H61.5081V82.463H59.6787V80.6775H65.5766V82.463H63.7143V92.4367H65.5766V94.2222H59.6787Z" fill="var(--svg-hover-color,#0B1324)"/>
<path d="M72.7697 82.6199V94.2218H70.5744V82.6199H66.5498V80.6808H76.8126V82.6199H72.7697Z" fill="var(--svg-hover-color,#0B1324)"/>
<path d="M82.2277 94.2218V88.8874L77.5664 80.6808H80.069L83.3619 86.7141H83.4204L86.7133 80.6808H89.1208L84.4193 88.8508V94.2255H82.224L82.2277 94.2218Z" fill="var(--svg-hover-color,#0B1324)"/>
<path d="M22.4315 164.372H14.0859V172.401H11.1016V153.967H14.0859V161.731H22.4315V153.967H25.4159V172.401H22.4315V164.372Z" fill="var(--svg-hover-color,#0B1324)"/>
<path d="M40.3341 172.401C39.577 172.401 38.996 172.19 38.591 171.767C38.1861 171.327 37.9396 170.772 37.8515 170.103H37.7195C37.4554 170.966 36.9712 171.618 36.2669 172.058C35.5627 172.498 34.7087 172.718 33.7052 172.718C32.279 172.718 31.1786 172.348 30.4039 171.609C29.6468 170.869 29.2682 169.874 29.2682 168.624C29.2682 167.251 29.7612 166.221 30.7472 165.534C31.7508 164.848 33.2122 164.504 35.1313 164.504H37.6139V163.342C37.6139 162.497 37.385 161.846 36.9272 161.388C36.4694 160.93 35.7563 160.701 34.788 160.701C33.9781 160.701 33.3178 160.877 32.8072 161.23C32.2966 161.582 31.8652 162.031 31.5131 162.576L29.7964 161.018C30.2542 160.244 30.8969 159.61 31.7244 159.117C32.5519 158.606 33.6347 158.351 34.9728 158.351C36.7511 158.351 38.1156 158.765 39.0664 159.592C40.0172 160.42 40.4926 161.608 40.4926 163.158V170.051H41.9451V172.401H40.3341ZM34.5239 170.526C35.4218 170.526 36.1613 170.332 36.7423 169.945C37.3233 169.54 37.6139 169.003 37.6139 168.334V166.353H35.1841C33.1946 166.353 32.1998 166.969 32.1998 168.202V168.677C32.1998 169.293 32.4023 169.76 32.8072 170.077C33.2298 170.376 33.802 170.526 34.5239 170.526Z" fill="var(--svg-hover-color,#0B1324)"/>
<path d="M45.2947 172.401V158.668H48.1734V160.939H48.3054C48.4463 160.587 48.6135 160.252 48.8072 159.935C49.0185 159.619 49.265 159.346 49.5467 159.117C49.846 158.87 50.1894 158.685 50.5767 158.562C50.9817 158.421 51.4482 158.351 51.9764 158.351C52.9096 158.351 53.7371 158.58 54.459 159.038C55.1809 159.495 55.7091 160.2 56.0436 161.15H56.1228C56.3693 160.376 56.8447 159.715 57.549 159.17C58.2533 158.624 59.16 158.351 60.2692 158.351C61.6426 158.351 62.7078 158.817 63.4649 159.751C64.222 160.666 64.6005 161.978 64.6005 163.686V172.401H61.7218V164.029C61.7218 162.973 61.5193 162.18 61.1144 161.652C60.7094 161.106 60.0668 160.833 59.1864 160.833C58.8167 160.833 58.4645 160.886 58.13 160.992C57.7955 161.08 57.4962 161.221 57.2321 161.414C56.9856 161.608 56.7831 161.855 56.6246 162.154C56.4662 162.453 56.3869 162.797 56.3869 163.184V172.401H53.5082V164.029C53.5082 161.899 52.6719 160.833 50.9993 160.833C50.6471 160.833 50.295 160.886 49.9429 160.992C49.6083 161.08 49.309 161.221 49.0449 161.414C48.7808 161.608 48.5695 161.855 48.4111 162.154C48.2526 162.453 48.1734 162.797 48.1734 163.184V172.401H45.2947Z" fill="var(--svg-hover-color,#0B1324)"/>
<path d="M69.1123 152.858H71.991V160.939H72.1231C72.4224 160.112 72.9066 159.478 73.5756 159.038C74.2623 158.58 75.0634 158.351 75.979 158.351C77.722 158.351 79.0689 158.985 80.0197 160.252C80.9705 161.502 81.4459 163.263 81.4459 165.534C81.4459 167.806 80.9705 169.575 80.0197 170.843C79.0689 172.093 77.722 172.718 75.979 172.718C75.0634 172.718 74.2623 172.489 73.5756 172.031C72.9066 171.574 72.4224 170.94 72.1231 170.13H71.991V172.401H69.1123V152.858ZM75.1074 170.235C76.111 170.235 76.9121 169.919 77.5107 169.285C78.1094 168.633 78.4087 167.779 78.4087 166.723V164.346C78.4087 163.29 78.1094 162.444 77.5107 161.811C76.9121 161.159 76.111 160.833 75.1074 160.833C74.2271 160.833 73.4876 161.053 72.889 161.494C72.2903 161.916 71.991 162.48 71.991 163.184V167.885C71.991 168.589 72.2903 169.161 72.889 169.602C73.4876 170.024 74.2271 170.235 75.1074 170.235Z" fill="var(--svg-hover-color,#0B1324)"/>
<path d="M93.5892 170.13H93.4835C93.3603 170.464 93.193 170.79 92.9817 171.107C92.788 171.424 92.5328 171.706 92.2158 171.952C91.9165 172.181 91.5468 172.366 91.1066 172.507C90.684 172.648 90.191 172.718 89.6276 172.718C88.2015 172.718 87.0923 172.26 86.2999 171.345C85.5253 170.429 85.1379 169.117 85.1379 167.41V158.668H88.0166V167.04C88.0166 169.17 88.8969 170.235 90.6576 170.235C91.0274 170.235 91.3883 170.191 91.7404 170.103C92.0926 169.998 92.4007 169.848 92.6648 169.654C92.9465 169.461 93.1666 169.214 93.3251 168.915C93.5011 168.616 93.5892 168.263 93.5892 167.859V158.668H96.4679V172.401H93.5892V170.13Z" fill="#0B1324"/>
<path d="M101.118 172.401V158.668H103.997V161.309H104.129C104.323 160.605 104.728 159.988 105.344 159.46C105.96 158.932 106.814 158.668 107.906 158.668H108.671V161.441H107.536C106.391 161.441 105.511 161.626 104.895 161.995C104.296 162.365 103.997 162.911 103.997 163.633V172.401H101.118Z" fill="#0B1324"/>
<path d="M123.309 173.695C123.309 175.121 122.764 176.195 121.672 176.917C120.58 177.639 118.802 178 116.337 178C115.21 178 114.251 177.921 113.458 177.762C112.684 177.621 112.041 177.41 111.531 177.128C111.038 176.847 110.677 176.503 110.448 176.098C110.219 175.694 110.104 175.227 110.104 174.699C110.104 173.942 110.307 173.352 110.712 172.929C111.134 172.507 111.715 172.216 112.455 172.058V171.767C111.416 171.433 110.897 170.728 110.897 169.654C110.897 168.95 111.134 168.413 111.61 168.043C112.085 167.656 112.657 167.383 113.326 167.225V167.119C112.517 166.732 111.891 166.195 111.451 165.508C111.029 164.804 110.817 163.985 110.817 163.052C110.817 161.643 111.284 160.508 112.217 159.645C113.168 158.782 114.524 158.351 116.284 158.351C117.253 158.351 118.08 158.492 118.767 158.773V158.404C118.767 157.787 118.908 157.312 119.189 156.978C119.489 156.625 119.947 156.449 120.563 156.449H122.676V158.773H119.876V159.328C120.492 159.733 120.968 160.261 121.302 160.913C121.637 161.546 121.804 162.26 121.804 163.052C121.804 164.443 121.329 165.57 120.378 166.432C119.427 167.277 118.071 167.7 116.311 167.7C115.642 167.7 115.043 167.63 114.515 167.489C114.163 167.612 113.855 167.788 113.591 168.017C113.326 168.228 113.194 168.51 113.194 168.862C113.194 169.232 113.362 169.496 113.696 169.654C114.031 169.813 114.506 169.892 115.122 169.892H118.503C120.193 169.892 121.417 170.235 122.174 170.922C122.931 171.591 123.309 172.516 123.309 173.695ZM120.616 174.012C120.616 173.537 120.431 173.158 120.061 172.876C119.709 172.595 119.057 172.454 118.107 172.454H113.458C112.825 172.824 112.508 173.352 112.508 174.038C112.508 174.602 112.728 175.051 113.168 175.385C113.626 175.738 114.392 175.914 115.466 175.914H117.262C119.498 175.914 120.616 175.28 120.616 174.012ZM116.311 165.614C117.156 165.614 117.807 165.429 118.265 165.059C118.741 164.672 118.978 164.082 118.978 163.29V162.761C118.978 161.969 118.741 161.388 118.265 161.018C117.807 160.631 117.156 160.437 116.311 160.437C115.466 160.437 114.805 160.631 114.33 161.018C113.872 161.388 113.643 161.969 113.643 162.761V163.29C113.643 164.082 113.872 164.672 114.33 165.059C114.805 165.429 115.466 165.614 116.311 165.614Z" fill="#0B1324"/>
</svg>

<svg xmlns="http://www.w3.org/2000/svg" width="49" height="64" fill="none" viewBox="0 0 136 178"><path fill="var(--svg-hover-color,#35a58e)" d="M101.457 58.176V20.49a2.2 2.2 0 0 0-1.097-1.898L68.69.294a2.2 2.2 0 0 0-2.196 0L34.82 18.588a2.2 2.2 0 0 0-1.097 1.899v37.689l32.771-18.938a2.2 2.2 0 0 1 2.195 0z"/><path fill="var(--svg-hover-color,#3a70ca)" d="m67.592 116.77 32.629 18.839a2.19 2.19 0 0 0 2.195 0l31.674-18.294a2.2 2.2 0 0 0 1.097-1.899V78.829a2.2 2.2 0 0 0-1.097-1.9l-32.625-18.794V95.93a2.2 2.2 0 0 1-1.098 1.899z"/><path fill="var(--svg-hover-color,#eb4544)" d="m67.592 116.77-32.629 18.839a2.19 2.19 0 0 1-2.195 0l-31.67-18.294A2.19 2.19 0 0 1 0 115.416V78.829a2.2 2.2 0 0 1 1.098-1.9l32.625-18.794V95.93a2.2 2.2 0 0 0 1.097 1.899z"/><path fill="var(--svg-hover-color,#0b1324)" d="M59.74 67.825h-5.59v-2.433h6.563v-3.41H50.381v15.29h3.768v-6.034h5.591zM65.562 61.982l-5.039 15.29h3.85l1.053-3.502h4.497l1.053 3.502h3.934l-4.973-15.29zm3.413 8.499h-2.623l1.302-4.482zM88.1 71.059a3.6 3.6 0 0 0-.882-1.156 3.4 3.4 0 0 0-1.153-.652c.351-.134.668-.344.93-.615.289-.306.51-.67.65-1.068a4.5 4.5 0 0 0 .238-1.533 4.03 4.03 0 0 0-1.097-2.927 4.17 4.17 0 0 0-3.059-1.097h-7.442V77.3h8.09c.566 0 1.126-.125 1.639-.366.492-.231.933-.56 1.295-.966.369-.42.656-.905.845-1.43a4.9 4.9 0 0 0 .304-1.735 3.96 3.96 0 0 0-.359-1.745m-8.05.135h3.41c.295-.02.585.078.809.27a1 1 0 0 1 .281.776v.732a1 1 0 0 1-.281.776c-.224.193-.514.29-.809.27h-3.41zm3.973-4.237a.96.96 0 0 1-1.064 1.065h-2.902v-2.77h2.902a.96.96 0 0 1 1.064 1.069zM53.52 94.457q-2.655 0-4.17-1.796t-1.515-5.214a10.4 10.4 0 0 1 .387-3.008 6.1 6.1 0 0 1 1.127-2.195 4.73 4.73 0 0 1 1.797-1.35 6 6 0 0 1 2.378-.457 5.37 5.37 0 0 1 2.96.768 5.1 5.1 0 0 1 1.873 2.28l-1.83 1.01a3.37 3.37 0 0 0-1.075-1.545 3 3 0 0 0-1.91-.57 3.05 3.05 0 0 0-2.466 1.071q-.892 1.07-.892 2.96v2.064q0 1.888.892 2.96a3.406 3.406 0 0 0 4.442.446c.517-.428.91-.988 1.134-1.62l1.767 1.068a5.47 5.47 0 0 1-1.902 2.297 5.26 5.26 0 0 1-2.997.83M59.679 94.222v-1.785h1.83v-9.974h-1.83v-1.785h5.898v1.785h-1.863v9.974h1.863v1.785zM72.77 82.62v11.602h-2.196V82.62H66.55v-1.94h10.263v1.94zM82.228 94.222v-5.335l-4.662-8.206h2.503l3.293 6.033h.058l3.293-6.033h2.408l-4.702 8.17v5.374h-2.195zM22.432 164.372h-8.346v8.029h-2.984v-18.434h2.984v7.764h8.346v-7.764h2.984v18.434H22.43zM40.334 172.401q-1.136 0-1.743-.634-.607-.66-.74-1.664h-.132q-.396 1.295-1.452 1.955t-2.562.66q-2.139 0-3.301-1.109-1.136-1.11-1.136-2.985 0-2.06 1.48-3.09 1.505-1.03 4.383-1.03h2.483v-1.162q0-1.267-.687-1.954-.686-.687-2.139-.687-1.215 0-1.98.529-.767.528-1.295 1.346l-1.717-1.558q.686-1.161 1.928-1.901 1.241-.766 3.249-.766 2.667 0 4.093 1.241t1.427 3.566v6.893h1.452v2.35zm-5.81-1.875q1.347 0 2.218-.581.872-.608.872-1.611v-1.981h-2.43q-2.984 0-2.984 1.849v.475q0 .924.607 1.4.634.449 1.717.449M45.295 172.401v-13.733h2.878v2.271h.132a6.7 6.7 0 0 1 .502-1.004q.318-.474.74-.818.448-.37 1.03-.555.607-.211 1.4-.211 1.4 0 2.482.687 1.083.686 1.585 2.112h.079q.37-1.162 1.426-1.98t2.72-.819q2.06 0 3.196 1.4 1.135 1.373 1.135 3.935v8.715h-2.878v-8.372q0-1.584-.608-2.377-.607-.819-1.928-.819-.554 0-1.056.159a2.7 2.7 0 0 0-.898.422 2.3 2.3 0 0 0-.607.74 2.2 2.2 0 0 0-.238 1.03v9.217h-2.879v-8.372q0-3.195-2.509-3.196-.528 0-1.056.159a2.7 2.7 0 0 0-.898.422 2.16 2.16 0 0 0-.634.74 2.2 2.2 0 0 0-.238 1.03v9.217zM69.112 152.858h2.879v8.081h.132q.45-1.24 1.453-1.901 1.029-.687 2.403-.687 2.615 0 4.04 1.901 1.427 1.875 1.427 5.282t-1.426 5.309q-1.427 1.875-4.041 1.875-1.374 0-2.403-.687-1.005-.686-1.453-1.901h-.132v2.271h-2.879zm5.995 17.377q1.506 0 2.404-.95.897-.978.898-2.562v-2.377q0-1.585-.898-2.535-.898-.978-2.404-.978-1.32 0-2.218.661-.898.633-.898 1.69v4.701q0 1.056.898 1.717.898.633 2.218.633"/><path fill="#0b1324" d="M93.59 170.13h-.106q-.186.501-.502.977a3.1 3.1 0 0 1-.766.845q-.45.344-1.11.555-.633.211-1.478.211-2.14 0-3.328-1.373-1.162-1.374-1.162-3.935v-8.742h2.879v8.372q0 3.195 2.64 3.195.555 0 1.083-.132a3 3 0 0 0 .925-.449q.422-.29.66-.739.264-.45.264-1.056v-9.191h2.879v13.733h-2.879zM101.118 172.401v-13.733h2.879v2.641h.132q.291-1.056 1.215-1.849t2.562-.792h.765v2.773h-1.135q-1.717 0-2.641.554-.898.555-.898 1.638v8.768zM123.309 173.695q0 2.139-1.637 3.222T116.337 178q-1.69 0-2.879-.238-1.161-.211-1.927-.634-.74-.422-1.083-1.03-.344-.606-.344-1.399 0-1.135.608-1.77.633-.633 1.743-.871v-.291q-1.558-.502-1.558-2.113 0-1.056.713-1.611.712-.58 1.716-.818v-.106q-1.214-.58-1.875-1.611-.633-1.056-.634-2.456 0-2.113 1.4-3.407 1.427-1.294 4.067-1.294 1.453 0 2.483.422v-.369q0-.925.422-1.426.45-.53 1.374-.529h2.113v2.324h-2.8v.555a4.1 4.1 0 0 1 1.426 1.585q.502.95.502 2.139 0 2.087-1.426 3.38-1.427 1.268-4.067 1.268-1.004 0-1.796-.211-.528.184-.924.528a1.02 1.02 0 0 0-.397.845q0 .555.502.792.502.238 1.426.238h3.381q2.535 0 3.671 1.03 1.135 1.004 1.135 2.773m-2.693.317q0-.713-.555-1.136-.529-.422-1.954-.422h-4.649q-.95.555-.95 1.584 0 .846.66 1.347.687.53 2.298.529h1.796q3.354 0 3.354-1.902m-4.305-8.398q1.267 0 1.954-.555.713-.58.713-1.769v-.529q0-1.188-.713-1.743-.687-.58-1.954-.581-1.268 0-1.981.581-.687.555-.687 1.743v.529q0 1.188.687 1.769.713.555 1.981.555"/></svg>
